icons/tokens/0xa3BeD4E1c75D00fa6f4E5E6922DB7261B5E9AcD2/logo.svg

<svg xmlns="http://www.w3.org/2000/svg" width="32" height="32" viewBox="0 0 32 32">
  <g fill="none">
    <path fill="#FFF" d="M16,0 C7.16366102,0 0,7.16366102 0,16 C0,24.836339 7.16366102,32 16,32 C24.836339,32 32,24.836339 32,16 L32,15.9902373 C31.9951186,7.15932203 24.8330847,0 16,0 Z"/>
    <path fill="#000" d="M7.49842697,10.0251707 C7.49842697,9.32195122 7.45558052,8.64195122 7.38966292,7.93873171 L10.5075655,7.93873171 L10.6163296,9.36507317 C10.9656929,8.88409756 11.81603,7.69658537 14.0176779,7.69658537 C16.5489139,7.69658537 17.2674157,9.25560976 17.4849438,9.78302439 C18.4011985,8.00507317 19.8843446,7.71980488 21.0181273,7.71980488 C23.2428464,7.71980488 24.1393258,9.05990244 24.3766292,9.4977561 C24.9665918,10.4630244 24.9204494,11.803122 24.9204494,12.7683902 L24.9204494,18.8419512 L21.6707116,18.8419512 L21.6707116,12.5063415 C21.6707116,11.3188293 21.49603,10.0019512 19.8151311,10.0019512 C17.8837453,10.0019512 17.8408989,11.8263415 17.8408989,13.4716098 L17.8408989,18.8419512 L14.591161,18.8419512 L14.591161,12.44 C14.591161,11.5841951 14.5680899,10.0019512 12.7817228,10.0019512 C10.7514607,10.0019512 10.7514607,11.76 10.7514607,12.5063415 L10.7514607,18.8419512 L7.49842697,18.8419512 L7.49842697,10.0251707 Z"/>
    <polygon fill="#000" points="7.39 21.28 24.93 21.28 24.93 23.983 7.39 23.983"/>
  </g>
</svg>

<svg xmlns="http://www.w3.org/2000/svg" width="32" height="32"><g fill="none"><path fill="#FFF" d="M16 0C7.164 0 0 7.164 0 16s7.164 16 16 16 16-7.164 16-16v-.01C31.995 7.16 24.833 0 16 0z"/><path fill="#000" d="M7.498 10.025c0-.703-.042-1.383-.108-2.086h3.118l.108 1.426c.35-.48 1.2-1.668 3.402-1.668 2.53 0 3.25 1.559 3.467 2.086.916-1.778 2.4-2.063 3.533-2.063 2.225 0 3.121 1.34 3.359 1.778.59.965.543 2.305.543 3.27v6.074h-3.25v-6.336c0-1.187-.174-2.504-1.855-2.504-1.931 0-1.974 1.824-1.974 3.47v5.37h-3.25V12.44c0-.856-.023-2.438-1.81-2.438-2.03 0-2.03 1.758-2.03 2.504v6.336H7.498v-8.817zM7.39 21.28h17.54v2.703H7.39z"/></g></svg>
